libs/ui/packages/crypto-icons/src/svg/UTK.svg

<svg width="24" height="24" viewBox="0 0 24 24" fill="none">
<path d="M10.7647 16.7235V6.771H7.875V4.5H16.125V6.771H13.2352V16.7235H10.7647ZM10.0995 19.5C8.60775 19.5 7.902 18.783 7.902 17.2665V7.422H10.0725V17.166C10.0725 17.406 10.1512 17.4855 10.3867 17.4855H13.641C13.8765 17.4855 13.956 17.4053 13.956 17.166V7.422H16.125V17.2665C16.125 18.783 15.4185 19.5 13.9275 19.5H10.0995Z" fill="#30367A"/>
</svg>

<svg width="24" height="24" viewBox="0 0 24 24" fill="none"><path fill="#30367a" d="M10.765 16.724V6.77h-2.89V4.5h8.25v2.271h-2.89v9.953zM10.1 19.5c-1.492 0-2.198-.717-2.198-2.233V7.422h2.17v9.744c0 .24.08.32.315.32h3.254c.236 0 .315-.08.315-.32V7.422h2.169v9.845c0 1.516-.707 2.233-2.197 2.233z"/></svg>
